dist/assets/img/winstore-logo.svg

<svg width="170" height="48" viewBox="0 0 170 48" fill="none" xmlns="http://www.w3.org/2000/svg">
<path d="M3 12C11.0057 12 23.5 12 23.5 12L32.5 35.5L41 12L49 35.5C49 35.5 54.79 21.1773 58.5 12M66 12V35.5M75 35.5C75 26.3227 75 12 75 12L90.5 34.5V12" stroke="white" stroke-width="5" stroke-linecap="round" stroke-linejoin="round"/>
<circle cx="33" cy="44.5" r="3.5" fill="white"/>
<circle cx="50" cy="44.5" r="3.5" fill="white"/>
<circle cx="66" cy="3.5" r="3.5" fill="white"/>
<path d="M103.022 20.0103L102.187 20.873C101.494 20.1989 100.817 19.8618 100.155 19.8618C99.7347 19.8618 99.3729 20.001 99.0698 20.2793C98.7729 20.5576 98.6245 20.8823 98.6245 21.2534C98.6245 21.5812 98.7482 21.8936 98.9956 22.1904C99.243 22.4935 99.7625 22.8491 100.554 23.2573C101.519 23.7583 102.175 24.2407 102.521 24.7046C102.861 25.1746 103.031 25.7035 103.031 26.291C103.031 27.1198 102.741 27.8218 102.159 28.397C101.578 28.9722 100.851 29.2598 99.979 29.2598C99.3976 29.2598 98.841 29.133 98.3091 28.8794C97.7834 28.6258 97.3473 28.2764 97.001 27.8311L97.8174 26.9033C98.4792 27.6517 99.1812 28.0259 99.9233 28.0259C100.443 28.0259 100.885 27.8589 101.25 27.5249C101.615 27.1909 101.797 26.7982 101.797 26.3467C101.797 25.9756 101.677 25.6447 101.436 25.354C101.194 25.0695 100.65 24.7108 99.8027 24.2778C98.8936 23.8078 98.2751 23.3439 97.9473 22.8862C97.6195 22.4285 97.4556 21.9059 97.4556 21.3184C97.4556 20.5514 97.7153 19.9144 98.2349 19.4072C98.7606 18.9001 99.4224 18.6465 100.22 18.6465C101.148 18.6465 102.082 19.1011 103.022 20.0103ZM106.464 15.1582H107.772V18.9062H109.832V20.0195H107.772V29H106.464V20.0195H104.692V18.9062H106.464V15.1582ZM116.548 18.6465C118.101 18.6465 119.387 19.2093 120.408 20.335C121.335 21.3617 121.799 22.577 121.799 23.981C121.799 25.3911 121.308 26.625 120.324 27.6826C119.347 28.734 118.088 29.2598 116.548 29.2598C115.002 29.2598 113.737 28.734 112.754 27.6826C111.777 26.625 111.288 25.3911 111.288 23.981C111.288 22.5832 111.752 21.3709 112.68 20.3442C113.7 19.2124 114.99 18.6465 116.548 18.6465ZM116.548 19.9175C115.472 19.9175 114.548 20.3164 113.774 21.1143C113.001 21.9121 112.615 22.877 112.615 24.0088C112.615 24.7386 112.791 25.4189 113.144 26.0498C113.496 26.6807 113.972 27.1693 114.572 27.5156C115.172 27.8558 115.831 28.0259 116.548 28.0259C117.266 28.0259 117.924 27.8558 118.524 27.5156C119.124 27.1693 119.601 26.6807 119.953 26.0498C120.306 25.4189 120.482 24.7386 120.482 24.0088C120.482 22.877 120.092 21.9121 119.313 21.1143C118.54 20.3164 117.618 19.9175 116.548 19.9175ZM123.729 18.9062H125.056V20.3813C125.451 19.8 125.869 19.367 126.308 19.0825C126.747 18.7918 127.205 18.6465 127.681 18.6465C128.04 18.6465 128.423 18.7609 128.832 18.9897L128.154 20.0845C127.882 19.967 127.653 19.9082 127.468 19.9082C127.035 19.9082 126.617 20.0876 126.215 20.4463C125.813 20.7988 125.507 21.3493 125.297 22.0977C125.136 22.6729 125.056 23.8356 125.056 25.5859V29H123.729V18.9062ZM138.434 25.6509L139.528 26.2261C139.17 26.9312 138.755 27.5002 138.285 27.9331C137.815 28.366 137.286 28.6969 136.699 28.9258C136.111 29.1484 135.446 29.2598 134.704 29.2598C133.059 29.2598 131.772 28.7217 130.845 27.6455C129.917 26.5632 129.453 25.3416 129.453 23.981C129.453 22.7007 129.846 21.5596 130.631 20.5576C131.627 19.2835 132.96 18.6465 134.63 18.6465C136.349 18.6465 137.722 19.299 138.749 20.604C139.479 21.5256 139.85 22.6759 139.862 24.0552H130.789C130.814 25.2303 131.188 26.1951 131.912 26.9497C132.635 27.6981 133.529 28.0723 134.593 28.0723C135.106 28.0723 135.604 27.9826 136.086 27.8032C136.575 27.6239 136.989 27.3857 137.33 27.0889C137.67 26.792 138.038 26.3127 138.434 25.6509ZM138.434 22.9326C138.26 22.2399 138.007 21.6864 137.673 21.272C137.345 20.8576 136.909 20.5236 136.365 20.27C135.82 20.0164 135.248 19.8896 134.648 19.8896C133.659 19.8896 132.808 20.2082 132.097 20.8452C131.578 21.3091 131.185 22.0049 130.919 22.9326H138.434ZM143.722 26.959C144.037 26.959 144.306 27.0703 144.529 27.293C144.751 27.5156 144.863 27.7878 144.863 28.1094C144.863 28.4248 144.751 28.6969 144.529 28.9258C144.306 29.1484 144.037 29.2598 143.722 29.2598C143.406 29.2598 143.137 29.1484 142.915 28.9258C142.692 28.6969 142.581 28.4248 142.581 28.1094C142.581 27.7878 142.692 27.5156 142.915 27.293C143.137 27.0703 143.406 26.959 143.722 26.959ZM147.581 18.9062H148.871V20.7617C149.384 20.0566 149.975 19.5278 150.643 19.1753C151.311 18.8228 152.056 18.6465 152.878 18.6465C154.313 18.6465 155.541 19.1629 156.562 20.1958C157.582 21.2287 158.092 22.4718 158.092 23.9253C158.092 25.4097 157.585 26.6714 156.571 27.7104C155.563 28.7433 154.344 29.2598 152.916 29.2598C152.111 29.2598 151.372 29.0928 150.698 28.7588C150.024 28.4248 149.415 27.9269 148.871 27.2651V32.6924H147.581V18.9062ZM152.776 19.8989C151.651 19.8989 150.701 20.2917 149.928 21.0771C149.161 21.8626 148.778 22.8398 148.778 24.0088C148.778 24.7757 148.948 25.4653 149.288 26.0776C149.634 26.6899 150.126 27.1755 150.763 27.5342C151.406 27.8929 152.084 28.0723 152.795 28.0723C153.494 28.0723 154.149 27.8929 154.762 27.5342C155.38 27.1693 155.872 26.6621 156.237 26.0127C156.602 25.3633 156.784 24.6829 156.784 23.9717C156.784 23.2542 156.602 22.5739 156.237 21.9307C155.878 21.2874 155.393 20.7896 154.78 20.437C154.168 20.0783 153.5 19.8989 152.776 19.8989ZM160.523 15.0098H161.831V22.9697L166.498 18.9062H168.409L162.87 23.7212L168.733 29H166.896L161.831 24.4634V29H160.523V15.0098Z" fill="white"/>
</svg>

<svg width="170" height="48" fill="none" xmlns="http://www.w3.org/2000/svg"><path d="M3 12h20.5l9 23.5L41 12l8 23.5L58.5 12m7.5 0v23.5m9 0V12l15.5 22.5V12" stroke="#fff" stroke-width="5" stroke-linecap="round" stroke-linejoin="round"/><circle cx="33" cy="44.5" r="3.5" fill="#fff"/><circle cx="50" cy="44.5" r="3.5" fill="#fff"/><circle cx="66" cy="3.5" r="3.5" fill="#fff"/><path d="M103.022 20.01l-.835.863c-.693-.674-1.37-1.011-2.032-1.011-.42 0-.782.139-1.085.417-.297.279-.445.603-.445.974 0 .328.123.64.37.937.248.303.767.66 1.559 1.067.965.501 1.621.984 1.967 1.448.34.47.51.998.51 1.586 0 .829-.29 1.53-.872 2.106-.581.575-1.308.863-2.18.863a3.834 3.834 0 01-1.67-.38 3.627 3.627 0 01-1.308-1.049l.816-.928c.662.749 1.364 1.123 2.106 1.123.52 0 .962-.167 1.327-.501.365-.334.547-.727.547-1.178 0-.371-.12-.702-.361-.993-.242-.284-.786-.643-1.633-1.076-.91-.47-1.528-.934-1.856-1.392a2.625 2.625 0 01-.491-1.568c0-.767.26-1.404.779-1.91.526-.508 1.187-.762 1.985-.762.928 0 1.862.455 2.802 1.364zm3.442-4.852h1.308v3.748h2.06v1.114h-2.06V29h-1.308v-8.98h-1.772v-1.114h1.772v-3.748zm10.084 3.489c1.553 0 2.839.562 3.86 1.688.927 1.027 1.391 2.242 1.391 3.646 0 1.41-.491 2.644-1.475 3.702-.977 1.051-2.236 1.577-3.776 1.577-1.546 0-2.811-.526-3.794-1.577-.977-1.058-1.466-2.292-1.466-3.702 0-1.398.464-2.61 1.392-3.637 1.02-1.132 2.31-1.698 3.868-1.698zm0 1.27c-1.076 0-2 .4-2.774 1.197-.773.798-1.159 1.763-1.159 2.895 0 .73.176 1.41.529 2.04a3.78 3.78 0 001.428 1.467c.6.34 1.259.51 1.976.51.718 0 1.376-.17 1.976-.51a3.783 3.783 0 001.429-1.466 4.111 4.111 0 00.529-2.041c0-1.132-.39-2.097-1.169-2.895-.773-.798-1.695-1.197-2.765-1.197zm7.181-1.01h1.327v1.474c.395-.581.813-1.014 1.252-1.299.439-.29.897-.436 1.373-.436.359 0 .742.115 1.151.344l-.678 1.095c-.272-.118-.501-.177-.686-.177-.433 0-.851.18-1.253.538-.402.353-.708.903-.918 1.652-.161.575-.241 1.738-.241 3.488V29h-1.327V18.906zm14.705 6.744l1.094.575c-.358.705-.773 1.274-1.243 1.707a5.01 5.01 0 01-1.586.993c-.588.222-1.253.334-1.995.334-1.645 0-2.932-.538-3.859-1.615-.928-1.082-1.392-2.303-1.392-3.664 0-1.28.393-2.421 1.178-3.423.996-1.274 2.329-1.912 3.999-1.912 1.719 0 3.092.653 4.119 1.958.73.922 1.101 2.072 1.113 3.451h-9.073c.025 1.175.399 2.14 1.123 2.895.723.748 1.617 1.122 2.681 1.122.513 0 1.011-.09 1.493-.269.489-.18.903-.417 1.244-.714.34-.297.708-.776 1.104-1.438zm0-2.718c-.174-.693-.427-1.247-.761-1.661-.328-.414-.764-.748-1.308-1.002a4.022 4.022 0 00-1.717-.38c-.989 0-1.84.318-2.551.955-.519.464-.912 1.16-1.178 2.088h7.515zm5.288 4.026a1.1 1.1 0 01.807.334c.222.223.334.495.334.816 0 .316-.112.588-.334.817a1.1 1.1 0 01-.807.334 1.1 1.1 0 01-.807-.334 1.13 1.13 0 01-.334-.817c0-.321.111-.593.334-.816.222-.223.491-.334.807-.334zm3.859-8.053h1.29v1.856c.513-.705 1.104-1.234 1.772-1.587.668-.352 1.413-.529 2.235-.529 1.435 0 2.663.517 3.684 1.55 1.02 1.033 1.53 2.276 1.53 3.73 0 1.484-.507 2.745-1.521 3.784-1.008 1.033-2.227 1.55-3.655 1.55a4.925 4.925 0 01-2.218-.501c-.674-.334-1.283-.832-1.827-1.494v5.427h-1.29V18.906zm5.195.993c-1.125 0-2.075.393-2.848 1.178-.767.786-1.15 1.763-1.15 2.932 0 .767.17 1.456.51 2.069a3.793 3.793 0 001.475 1.456 4.113 4.113 0 002.032.538c.699 0 1.354-.18 1.967-.538a4.013 4.013 0 001.475-1.521 4.072 4.072 0 000-4.082 3.843 3.843 0 00-1.457-1.494 3.893 3.893 0 00-2.004-.538zm7.747-4.89h1.308v7.96l4.667-4.063h1.911l-5.539 4.815L168.733 29h-1.837l-5.065-4.537V29h-1.308V15.01z" fill="#fff"/></svg>
